images/instagram-white.svg

<svg height="24" viewBox="0 0 24 24" width="24" xmlns="http://www.w3.org/2000/svg"><path d="m12.0000238 44c-3.25902812 0-3.66768087.0138139-4.94760845.0722133-1.2772601.0582564-2.14958291.26113-2.91287132.557795-.78910609.3066205-1.45831722.7169404-2.12548006 1.3840557-.66711522.6671628-1.07743515 1.3363739-1.38405569 2.12548-.29666502.7632884-.49953855 1.6356112-.55779502 2.9128713-.05839938 1.2799276-.07221326 1.6885804-.07221326 4.9476085 0 3.2589806.01381388 3.6676333.07221326 4.9475609.05825647 1.2772601.26113 2.1495828.55779502 2.9128713.30662054.7891061.71694047 1.4583172 1.38405569 2.12548.66716284.6671153 1.33637397 1.0774352 2.12548006 1.3841033.76328841.2966175 1.63561122.499491 2.91287132.5577474 1.27992759.0583994 1.68858033.0722133 4.94760845.0722133 3.2589806 0 3.6676333-.0138139 4.9475609-.0722133 1.2772601-.0582564 2.1495828-.2611299 2.9128713-.5577474.7891061-.3066681 1.4583172-.716988 2.12548-1.3841033.6671153-.6671628 1.0774352-1.3363739 1.3841033-2.12548.2966175-.7632885.499491-1.6356112.5577474-2.9128713.0583994-1.2799276.0722133-1.6885803.0722133-4.9475609 0-3.2590281-.0138139-3.6676809-.0722133-4.9476085-.0582564-1.2772601-.2611299-2.1495829-.5577474-2.9128713-.3066681-.7891061-.716988-1.4583172-1.3841033-2.12548-.6671628-.6671153-1.3363739-1.0774352-2.12548-1.3840557-.7632885-.296665-1.6356112-.4995386-2.9128713-.557795-1.2799277-.0583994-1.6885803-.0722133-4.9475609-.0722133zm0 2.1621583c3.2041061 0 3.5836544.012242 4.849006.0699744 1.1699881.0533502 1.8053791.2488405 2.2282267.413178.5601291.2176877.9598743.4777222 1.3797687.8976642.419942.4198943.6799764.8196395.8976641 1.3797686.1643376.4228477.3598278 1.0582386.413178 2.2282268.0577324 1.2653515.0699744 1.6448998.0699744 4.8490535 0 3.2041061-.012242 3.5836544-.0699744 4.8490059-.0533502 1.1699882-.2488404 1.8053792-.413178 2.2282268-.2176877.5601291-.4777221.9598743-.8976641 1.3797687-.4198944.419942-.8196396.6799764-1.3797687.8976641-.4228476.1643376-1.0582386.3598278-2.2282268.4131779-1.265161.0577325-1.6446616.0699745-4.8490059.0699745-3.20439184 0-3.58384489-.012242-4.84905355-.0699745-1.16998815-.0533501-1.80537908-.2488403-2.22822677-.4131779-.56012908-.2176877-.95987424-.4777221-1.37976862-.8976641-.41989437-.4198944-.67997642-.8196396-.89766414-1.3797687-.16433756-.4228476-.3598278-1.0582386-.41317797-2.2282268-.0577325-1.2653515-.06997445-1.6448998-.06997445-4.8490059 0-3.2041537.01224195-3.583702.06997445-4.8490535.05335017-1.1699882.24884041-1.8053791.41317797-2.2282268.21768772-.5601291.47772214-.9598743.89766414-1.3797686.41989438-.419942.81963954-.6799765 1.37976862-.8976642.42284769-.1643375 1.05823862-.3598278 2.22822677-.413178 1.26535156-.0577324 1.64489988-.0699744 4.84905355-.0699744zm0 13.8378418c-2.20917311 0-4.0000238-1.7908508-4.0000238-3.9999763 0-2.2091731 1.79085069-4.0000238 4.0000238-4.0000238 2.2091255 0 3.9999763 1.7908507 3.9999763 4.0000238 0 2.2091255-1.7908508 3.9999763-3.9999763 3.9999763zm0-10.1621584c-3.40331175 0-6.1621821 2.7588704-6.1621821 6.1621821 0 3.4032641 2.75887035 6.1621345 6.1621821 6.1621345 3.4032641 0 6.1621345-2.7588704 6.1621345-6.1621345 0-3.4033117-2.7588704-6.1621821-6.1621345-6.1621821zm7.8456181-.2434577c0-.7952986-.6447273-1.4400258-1.4400258-1.4400258-.795251 0-1.4399781.6447272-1.4399781 1.4400258 0 .7952985.6447271 1.439978 1.4399781 1.439978.7952985 0 1.4400258-.6446795 1.4400258-1.439978z" fill="#fff" fill-rule="evenodd" transform="translate(0 -44)"/></svg>

<?xml version="1.0" encoding="UTF-8"?>
<svg width="24px" height="24px" viewBox="0 0 24 24" version="1.1" xmlns="http://www.w3.org/2000/svg" xmlns:xlink="http://www.w3.org/1999/xlink">
    <!-- Generator: Sketch 52 (66869) - http://www.bohemiancoding.com/sketch -->
    <title>instagram-white</title>
    <desc>Created with Sketch.</desc>
    <g id="Symbols" stroke="none" stroke-width="1" fill="none" fill-rule="evenodd">
        <g id="Header" transform="translate(-997.000000, -432.000000)" fill="#FFFFFF">
            <g id="locked-elements">
                <g transform="translate(0.000000, 16.000000)">
                    <g id="insta" transform="translate(997.000000, 372.000000)">
                        <path d="M12.0000238,44 C8.74099568,44 8.33234293,44.0138139 7.05241535,44.0722133 C5.77515525,44.1304697 4.90283244,44.3333433 4.13954403,44.6300083 C3.35043794,44.9366288 2.68122681,45.3469487 2.01406397,46.014064 C1.34694875,46.6812268 0.936628815,47.3504379 0.63000828,48.139544 C0.33334326,48.9028324 0.13046973,49.7751552 0.072213255,51.0524153 C0.013813875,52.3323429 0,52.7409957 0,56.0000238 C0,59.2590044 0.013813875,59.6676571 0.072213255,60.9475847 C0.13046973,62.2248448 0.33334326,63.0971675 0.63000828,63.860456 C0.936628815,64.6495621 1.34694875,65.3187732 2.01406397,65.985936 C2.68122681,66.6530513 3.35043794,67.0633712 4.13954403,67.3700393 C4.90283244,67.6666568 5.77515525,67.8695303 7.05241535,67.9277867 C8.33234294,67.9861861 8.74099568,68 12.0000238,68 C15.2590044,68 15.6676571,67.9861861 16.9475847,67.9277867 C18.2248448,67.8695303 19.0971675,67.6666568 19.860456,67.3700393 C20.6495621,67.0633712 21.3187732,66.6530513 21.985936,65.985936 C22.6530513,65.3187732 23.0633712,64.6495621 23.3700393,63.860456 C23.6666568,63.0971675 23.8695303,62.2248448 23.9277867,60.9475847 C23.9861861,59.6676571 24,59.2590044 24,56.0000238 C24,52.7409957 23.9861861,52.3323429 23.9277867,51.0524153 C23.8695303,49.7751552 23.6666568,48.9028324 23.3700393,48.139544 C23.0633712,47.3504379 22.6530513,46.6812268 21.985936,46.014064 C21.3187732,45.3469487 20.6495621,44.9366288 19.860456,44.6300083 C19.0971675,44.3333433 18.2248448,44.1304697 16.9475847,44.0722133 C15.667657,44.0138139 15.2590044,44 12.0000238,44 Z M12.0000238,46.1621583 C15.2041299,46.1621583 15.5836782,46.1744003 16.8490298,46.2321327 C18.0190179,46.2854829 18.6544089,46.4809732 19.0772565,46.6453107 C19.6373856,46.8629984 20.0371308,47.1230329 20.4570252,47.5429749 C20.8769672,47.9628692 21.1370016,48.3626144 21.3546893,48.9227435 C21.5190269,49.3455912 21.7145171,49.9809821 21.7678673,51.1509703 C21.8255997,52.4163218 21.8378417,52.7958701 21.8378417,56.0000238 C21.8378417,59.2041299 21.8255997,59.5836782 21.7678673,60.8490297 C21.7145171,62.0190179 21.5190269,62.6544089 21.3546893,63.0772565 C21.1370016,63.6373856 20.8769672,64.0371308 20.4570252,64.4570252 C20.0371308,64.8769672 19.6373856,65.1370016 19.0772565,65.3546893 C18.6544089,65.5190269 18.0190179,65.7145171 16.8490297,65.7678672 C15.5838687,65.8255997 15.2043681,65.8378417 12.0000238,65.8378417 C8.79563196,65.8378417 8.41617891,65.8255997 7.15097025,65.7678672 C5.9809821,65.7145171 5.34559117,65.5190269 4.92274348,65.3546893 C4.3626144,65.1370016 3.96286924,64.8769672 3.54297486,64.4570252 C3.12308049,64.0371308 2.86299844,63.6373856 2.64531072,63.0772565 C2.48097316,62.6544089 2.28548292,62.0190179 2.23213275,60.8490297 C2.17440025,59.5836782 2.1621583,59.2041299 2.1621583,56.0000238 C2.1621583,52.7958701 2.17440025,52.4163218 2.23213275,51.1509703 C2.28548292,49.9809821 2.48097316,49.3455912 2.64531072,48.9227435 C2.86299844,48.3626144 3.12303286,47.9628692 3.54297486,47.5429749 C3.96286924,47.1230329 4.3626144,46.8629984 4.92274348,46.6453107 C5.34559117,46.4809732 5.9809821,46.2854829 7.15097025,46.2321327 C8.41632181,46.1744003 8.79587013,46.1621583 12.0000238,46.1621583 Z M12.0000238,60.0000001 C9.79085069,60.0000001 8,58.2091493 8,56.0000238 C8,53.7908507 9.79085069,52 12.0000238,52 C14.2091493,52 16.0000001,53.7908507 16.0000001,56.0000238 C16.0000001,58.2091493 14.2091493,60.0000001 12.0000238,60.0000001 Z M12.0000238,49.8378417 C8.59671205,49.8378417 5.8378417,52.5967121 5.8378417,56.0000238 C5.8378417,59.4032879 8.59671205,62.1621583 12.0000238,62.1621583 C15.4032879,62.1621583 18.1621583,59.4032879 18.1621583,56.0000238 C18.1621583,52.5967121 15.4032879,49.8378417 12.0000238,49.8378417 Z M19.8456419,49.594384 C19.8456419,48.7990854 19.2009146,48.1543582 18.4056161,48.1543582 C17.6103651,48.1543582 16.965638,48.7990854 16.965638,49.594384 C16.965638,50.3896825 17.6103651,51.034362 18.4056161,51.034362 C19.2009146,51.034362 19.8456419,50.3896825 19.8456419,49.594384 Z" id="instagram-white"></path>
                    </g>
                </g>
            </g>
        </g>
    </g>
</svg>
